images/icons/delivery.svg

<svg width="87" height="64" viewBox="0 0 87 64" fill="none" xmlns="http://www.w3.org/2000/svg">
<path d="M70.0228 20.7609H64.5968L66.2316 1.9905C66.2347 1.9565 66.2352 1.923 66.2353 1.8895C66.2353 1.88664 66.2357 1.88395 66.2357 1.88109C66.2357 1.88058 66.2357 1.88025 66.2357 1.87974C66.2357 1.36886 65.9275 0.918572 65.4745 0.722804C65.4706 0.72112 65.4669 0.719101 65.463 0.717417C65.4349 0.705634 65.4058 0.695534 65.3765 0.685771C65.3656 0.682236 65.3551 0.677859 65.3442 0.674492C65.3203 0.667254 65.2957 0.661531 65.2713 0.655639C65.2541 0.651599 65.2376 0.646718 65.2203 0.643351C65.1989 0.639143 65.1767 0.63645 65.1548 0.633252C65.1343 0.630222 65.1141 0.626686 65.0934 0.624835C65.0899 0.624498 65.0867 0.623824 65.0831 0.623488C65.0609 0.621468 65.039 0.621804 65.017 0.620963C65.0022 0.620458 64.9877 0.618774 64.9729 0.618774H64.957C64.9557 0.618774 64.9543 0.618774 64.9532 0.618774H39.1361C38.4392 0.618774 37.8736 1.18437 37.8736 1.88126C37.8736 2.57646 38.4392 3.14374 39.1361 3.14374H63.5968L61.0843 31.9914C61.0839 31.9936 61.0839 31.9958 61.0836 31.998L60.4496 39.2768H16.5811L17.3149 31.7022H25.6676C26.365 31.7022 26.9301 31.137 26.9301 30.4398C26.9301 29.7425 26.365 29.1773 25.6676 29.1773H17.5596L19.1089 13.1867H32.4029C33.1003 13.1867 33.6653 12.6214 33.6653 11.9242C33.6653 11.227 33.1003 10.6617 32.4029 10.6617H19.3537L20.0822 3.14374H34.0862C34.7814 3.14374 35.3487 2.57646 35.3487 1.88126C35.3487 1.18437 34.7814 0.618774 34.0862 0.618774H18.9364C18.9357 0.618774 18.9352 0.618943 18.9346 0.618943C18.3415 0.618774 17.8271 1.03624 17.7027 1.61496C17.7019 1.61917 17.7004 1.62321 17.6995 1.62741C17.6931 1.65889 17.6889 1.69104 17.6847 1.72336C17.6835 1.73363 17.6813 1.74339 17.6803 1.75366C17.6802 1.75568 17.6796 1.75753 17.6795 1.75955L16.817 10.6617H1.51248C0.815087 10.6617 0.25 11.227 0.25 11.9242C0.25 12.6214 0.815087 13.1867 1.51248 13.1867H16.5722L15.0229 29.1773H10.5185C9.82112 29.1773 9.25604 29.7425 9.25604 30.4398C9.25604 31.137 9.82112 31.7022 10.5185 31.7022H14.7783L13.9346 40.4085C13.9345 40.4098 13.9345 40.4112 13.9343 40.4124L12.6299 53.8753C12.6297 53.8768 12.6296 53.8785 12.6294 53.8798L12.6289 53.8847C12.6272 53.9022 12.6274 53.9194 12.6264 53.9369C12.6252 53.9601 12.6228 53.9828 12.6228 54.0064C12.6228 54.0074 12.623 54.0084 12.623 54.0096C12.623 54.0421 12.6253 54.0741 12.6277 54.1061C12.6287 54.1163 12.6284 54.1268 12.6296 54.1369C12.6329 54.1695 12.6385 54.2017 12.6444 54.2337C12.646 54.2431 12.6469 54.2527 12.6487 54.2619C12.6536 54.2862 12.6605 54.3096 12.6669 54.3333C12.6713 54.35 12.6748 54.367 12.6799 54.3833C12.6814 54.3879 12.6834 54.3922 12.6848 54.3969C12.7459 54.5848 12.8496 54.7535 12.9849 54.8912C12.9874 54.8937 12.9894 54.8965 12.992 54.8989C13.0054 54.9124 13.0201 54.9245 13.0342 54.9373C13.1212 55.0171 13.2196 55.0847 13.3271 55.1378C13.3495 55.1489 13.3716 55.1605 13.3944 55.1701C13.4013 55.1731 13.4088 55.1751 13.4158 55.1778C13.4475 55.1904 13.4793 55.2026 13.5121 55.2128C13.5151 55.2137 13.518 55.2142 13.521 55.2152C13.5584 55.2263 13.5961 55.2361 13.6347 55.244C13.6397 55.245 13.6449 55.2453 13.6498 55.2463C13.6865 55.2532 13.7234 55.2591 13.7609 55.2628C13.7617 55.2628 13.7624 55.263 13.7633 55.2632C13.8047 55.2672 13.8457 55.2692 13.8865 55.2692C13.887 55.2692 13.8877 55.2691 13.8883 55.2691H19.5086C20.1292 59.9744 24.1632 63.6188 29.0356 63.6188C33.9076 63.6188 37.9416 59.9744 38.5623 55.2691H58.8123C59.4331 59.9744 63.467 63.6188 68.3391 63.6188C73.2111 63.6188 77.2455 59.9744 77.8663 55.2691H83.4879C83.4887 55.2691 83.4898 55.2692 83.4906 55.2692C83.5327 55.2692 83.5741 55.2667 83.6152 55.2627C83.6226 55.262 83.6296 55.2605 83.637 55.2596C83.6699 55.2558 83.7025 55.2512 83.7345 55.2448C83.7483 55.2421 83.7616 55.2384 83.7752 55.2352C83.8 55.2295 83.8249 55.2234 83.8491 55.2162C83.8656 55.2113 83.8816 55.2056 83.8978 55.2C83.9185 55.193 83.9392 55.1856 83.9596 55.1773C83.9771 55.1704 83.9937 55.1628 84.0107 55.1553C84.0293 55.1467 84.0478 55.1379 84.0658 55.1287C84.083 55.1199 84.0995 55.1108 84.116 55.1014C84.1333 55.0913 84.1505 55.0809 84.1675 55.0701C84.1833 55.06 84.1991 55.0497 84.2143 55.039C84.2314 55.027 84.2478 55.0144 84.2644 55.0016C84.2782 54.9906 84.2922 54.9799 84.3057 54.9684C84.323 54.9538 84.3393 54.9385 84.3558 54.9228C84.3673 54.9119 84.3792 54.9011 84.3903 54.8896C84.4078 54.8718 84.4245 54.8529 84.4412 54.8339C84.4501 54.8237 84.4593 54.8137 84.4679 54.8033C84.4864 54.7804 84.5033 54.7568 84.5201 54.7331C84.5258 54.7248 84.5322 54.7171 84.5378 54.7087C84.5583 54.6779 84.5777 54.6462 84.5955 54.6136C84.5969 54.6116 84.5982 54.6097 84.5991 54.6075C84.6181 54.5725 84.6356 54.5367 84.6512 54.4996C84.6556 54.489 84.659 54.4781 84.6632 54.4675C84.6735 54.4414 84.6836 54.4153 84.6921 54.3882C84.6977 54.3707 84.7017 54.3527 84.7066 54.335C84.7122 54.314 84.7181 54.2931 84.7228 54.2717C84.727 54.2527 84.7297 54.2332 84.7329 54.2138C84.7357 54.1968 84.7394 54.1801 84.7416 54.1628C84.7952 53.7339 85.7838 45.8023 86.2253 40.6736C86.2258 40.6687 86.226 40.6637 86.2265 40.6588C86.3536 39.1803 86.435 37.9354 86.435 37.1732C86.435 28.1235 79.0726 20.7609 70.0228 20.7609ZM64.3768 23.2862H69.5417L68.882 30.8604H63.7171L64.3768 23.2862ZM29.0359 61.0936C25.1278 61.0936 21.9483 57.9142 21.9483 54.0062C21.9483 50.0983 25.1279 46.9188 29.0359 46.9188C32.9439 46.9188 36.1233 50.0983 36.1233 54.0062C36.1233 57.9142 32.9439 61.0936 29.0359 61.0936ZM68.3391 61.0936C64.4312 61.0936 61.2519 57.9142 61.2519 54.0062C61.2519 50.0983 64.4313 46.9188 68.3391 46.9188C72.2473 46.9188 75.4267 50.0983 75.4267 54.0062C75.4267 57.9142 72.2473 61.0936 68.3391 61.0936ZM82.3724 52.7433H77.8667C77.2462 48.0376 73.212 44.393 68.3395 44.393C63.4673 44.393 59.4331 48.0377 58.8126 52.7433H38.5628C37.9423 48.0376 33.9083 44.393 29.0359 44.393C24.1636 44.393 20.1292 48.0377 19.5087 52.7433H15.2762L16.3365 41.8011H61.6066V41.8018C61.6073 41.8018 61.6078 41.8018 61.6084 41.8018C61.6507 41.8018 61.6926 41.7994 61.734 41.7952C61.7418 41.7945 61.7493 41.7928 61.7571 41.7918C61.7901 41.788 61.8229 41.7832 61.8552 41.7768C61.8692 41.774 61.8828 41.7701 61.8966 41.7667C61.9219 41.7607 61.9471 41.7548 61.9717 41.7474C61.9885 41.7423 62.0045 41.7363 62.0208 41.7305C62.0421 41.7231 62.0633 41.7159 62.0838 41.7075C62.1015 41.7003 62.1185 41.6922 62.1356 41.6841C62.1543 41.6755 62.173 41.6669 62.191 41.6575C62.2082 41.6484 62.225 41.6386 62.242 41.6289C62.2594 41.6188 62.2765 41.6085 62.2934 41.5977C62.3097 41.5871 62.3252 41.576 62.3408 41.5649C62.3575 41.5531 62.3737 41.541 62.3898 41.5284C62.4043 41.5168 62.4186 41.5048 62.4327 41.4925C62.4487 41.4787 62.4644 41.4646 62.4795 41.4499C62.4923 41.4377 62.5051 41.425 62.5176 41.4121C62.5327 41.3962 62.5474 41.3799 62.5619 41.3633C62.5731 41.3501 62.5843 41.337 62.595 41.3235C62.609 41.3059 62.6223 41.2877 62.6354 41.2693C62.6454 41.2555 62.6549 41.2417 62.6644 41.2276C62.6767 41.2086 62.6884 41.189 62.6997 41.1692C62.7083 41.1544 62.7171 41.1395 62.7248 41.1244C62.7354 41.1045 62.7445 41.0843 62.7541 41.064C62.7615 41.0476 62.7691 41.0316 62.7758 41.0148C62.7841 40.9949 62.791 40.9746 62.7982 40.9542C62.8044 40.9362 62.811 40.9182 62.8165 40.8997C62.8221 40.8801 62.8266 40.8601 62.8317 40.8402C62.8366 40.8202 62.842 40.8004 62.8458 40.78C62.8497 40.7601 62.8521 40.7399 62.8551 40.7197C62.8581 40.6988 62.8617 40.6783 62.8637 40.6571C62.864 40.6541 62.8647 40.6512 62.8649 40.6482L63.4976 33.3847H70.0225C73.8905 33.3847 75.6351 35.3889 77.4819 37.5108C79.0058 39.2616 80.7071 41.2151 83.599 41.6917C83.2317 45.5751 82.638 50.5603 82.3724 52.7433ZM83.8148 39.1617C81.9388 38.7792 80.7845 37.4603 79.3862 35.8538C77.6374 33.8448 75.5025 31.393 71.4098 30.9362L72.063 23.4374C78.7565 24.4273 83.9101 30.2091 83.9101 37.1735C83.9101 37.6467 83.8747 38.3341 83.8148 39.1617Z" fill="white"/>
<path d="M29.036 49.377C26.4836 49.377 24.4069 51.4535 24.4069 54.0061C24.4069 56.5586 26.4836 58.6351 29.036 58.6351C31.5884 58.6351 33.6651 56.5586 33.6651 54.0061C33.6651 51.4537 31.5884 49.377 29.036 49.377ZM29.036 56.1102C27.8757 56.1102 26.9318 55.1664 26.9318 54.0061C26.9318 52.8457 27.8757 51.9019 29.036 51.9019C30.1963 51.9019 31.1401 52.8457 31.1401 54.0061C31.1401 55.1664 30.1961 56.1102 29.036 56.1102Z" fill="white"/>
<path d="M68.3391 49.377C65.7867 49.377 63.71 51.4535 63.71 54.0061C63.71 56.5586 65.7867 58.6351 68.3391 58.6351C70.8915 58.6351 72.9682 56.5586 72.9682 54.0061C72.9682 51.4537 70.8915 49.377 68.3391 49.377ZM68.3391 56.1102C67.1788 56.1102 66.2349 55.1664 66.2349 54.0061C66.2349 52.8457 67.1788 51.9019 68.3391 51.9019C69.4994 51.9019 70.4432 52.8457 70.4432 54.0061C70.4432 55.1664 69.4994 56.1102 68.3391 56.1102Z" fill="white"/>
<path d="M12.2015 20.7613H6.02945C5.33205 20.7613 4.76697 21.3265 4.76697 22.0238C4.76697 22.721 5.33205 23.2863 6.02945 23.2863H12.2015C12.8989 23.2863 13.4639 22.721 13.4639 22.0238C13.4639 21.3265 12.8989 20.7613 12.2015 20.7613Z" fill="white"/>
</svg>

<svg width="87" height="64" viewBox="0 0 87 64" fill="none" xmlns="http://www.w3.org/2000/svg"><path d="M70.023 20.76h-5.426l1.635-18.77c.003-.034.003-.067.003-.1V1.88c0-.511-.308-.961-.76-1.157l-.012-.006a1.225 1.225 0 0 0-.087-.031l-.032-.012c-.024-.007-.048-.012-.073-.018-.017-.004-.033-.01-.05-.013l-.066-.01-.062-.008-.01-.002c-.022-.002-.044-.001-.066-.002l-.044-.002H39.136a1.263 1.263 0 0 0 0 2.525h24.46L61.085 31.99v.007l-.634 7.279H16.58l.734-7.575h8.353a1.262 1.262 0 1 0 0-2.525H17.56l1.549-15.99h13.294a1.262 1.262 0 1 0 0-2.525h-13.05l.73-7.518h14.003c.695 0 1.263-.568 1.263-1.263 0-.697-.568-1.262-1.263-1.262H18.935c-.593 0-1.108.417-1.232.996l-.003.012c-.007.032-.011.064-.015.096l-.005.03v.007l-.863 8.902H1.512a1.262 1.262 0 1 0 0 2.525h15.06l-1.55 15.99h-4.504a1.262 1.262 0 1 0 0 2.525h4.26l-.843 8.706v.004L12.63 53.875v.005l-.001.005c-.002.017-.002.034-.003.052 0 .023-.003.046-.003.07v.003c0 .032.002.064.005.096a1.202 1.202 0 0 0 .017.128l.004.028c.005.024.012.048.018.071l.013.05.005.014c.06.188.165.357.3.494l.007.008.042.038c.087.08.186.148.293.2l.067.033.022.008c.031.012.063.025.096.035l.009.002c.037.011.075.021.114.029l.015.002c.037.007.073.013.11.017h.003c.042.004.083.006.123.006h5.622c.621 4.705 4.655 8.35 9.528 8.35 4.872 0 8.906-3.645 9.526-8.35h20.25c.621 4.705 4.655 8.35 9.527 8.35 4.872 0 8.907-3.645 9.527-8.35h5.625c.042 0 .083-.002.124-.006l.022-.003c.033-.004.066-.009.097-.015l.041-.01c.025-.005.05-.012.074-.019l.049-.016c.02-.007.041-.014.062-.023l.05-.022a1.558 1.558 0 0 0 .157-.085 1.265 1.265 0 0 0 .097-.068l.042-.034.05-.045.034-.033c.018-.018.034-.037.051-.056l.027-.03.052-.07.018-.025a1.273 1.273 0 0 0 .113-.21c.005-.01.008-.02.012-.032l.03-.079.014-.053.016-.063.01-.058.009-.051c.053-.43 1.042-8.36 1.483-13.49l.002-.014c.127-1.479.208-2.724.208-3.486 0-9.05-7.362-16.412-16.412-16.412Zm-5.646 2.526h5.165l-.66 7.574h-5.165l.66-7.574ZM29.036 61.094a7.096 7.096 0 0 1-7.088-7.088c0-3.908 3.18-7.087 7.088-7.087a7.095 7.095 0 0 1 7.087 7.087 7.095 7.095 0 0 1-7.087 7.088Zm39.303 0a7.095 7.095 0 0 1-7.087-7.088c0-3.908 3.18-7.087 7.087-7.087a7.096 7.096 0 0 1 7.088 7.087 7.095 7.095 0 0 1-7.088 7.088Zm14.033-8.35h-4.505c-.62-4.706-4.655-8.351-9.528-8.351-4.872 0-8.906 3.645-9.526 8.35h-20.25c-.62-4.705-4.655-8.35-9.527-8.35-4.872 0-8.907 3.645-9.527 8.35h-4.233l1.06-10.942H61.609c.043 0 .085-.002.126-.006.008 0 .015-.002.023-.003.033-.004.066-.009.098-.015l.042-.01c.025-.006.05-.012.075-.02.017-.005.032-.01.049-.017l.063-.022.052-.024a1.23 1.23 0 0 0 .055-.026l.051-.03.051-.03c.017-.01.032-.022.048-.033a1.245 1.245 0 0 0 .22-.202l.034-.04a1.27 1.27 0 0 0 .105-.154l.025-.045.03-.06c.006-.016.014-.032.02-.05.01-.02.016-.04.023-.06l.018-.054.016-.06.014-.06.01-.06.008-.063v-.009l.634-7.263h6.524c3.868 0 5.613 2.004 7.46 4.126 1.524 1.75 3.225 3.704 6.117 4.18-.367 3.884-.961 8.87-1.227 11.052Zm1.443-13.582c-1.876-.383-3.03-1.702-4.429-3.308-1.749-2.01-3.883-4.461-7.976-4.918l.653-7.499c6.694.99 11.847 6.772 11.847 13.736 0 .474-.035 1.161-.095 1.989Z" fill="#fff"/><path d="M29.036 49.377a4.634 4.634 0 0 0-4.63 4.63 4.634 4.634 0 0 0 4.63 4.628 4.634 4.634 0 0 0 4.63-4.629 4.634 4.634 0 0 0-4.63-4.629Zm0 6.733a2.106 2.106 0 0 1-2.104-2.104c0-1.16.944-2.104 2.104-2.104 1.16 0 2.104.944 2.104 2.104 0 1.16-.944 2.104-2.104 2.104ZM68.34 49.377a4.634 4.634 0 0 0-4.63 4.63 4.634 4.634 0 0 0 4.63 4.628 4.634 4.634 0 0 0 4.628-4.629 4.634 4.634 0 0 0-4.629-4.629Zm0 6.733a2.106 2.106 0 0 1-2.105-2.104c0-1.16.944-2.104 2.104-2.104 1.16 0 2.104.944 2.104 2.104 0 1.16-.944 2.104-2.104 2.104ZM12.201 20.761H6.03a1.262 1.262 0 1 0 0 2.525h6.172a1.262 1.262 0 1 0 0-2.525Z" fill="#fff"/></svg>
